icons/pin.svg

<svg xmlns="http://www.w3.org/2000/svg" width="24" height="24" viewBox="0 0 24 24">
  <path d="M7.74230433,3.87865887 C8.91386604,2.70709716 10.8133598,2.70712217 11.9849208,3.87868314 C12.2347473,4.12850967 12.4384794,4.42050275 12.5867268,4.74120403 C13.0313118,5.70296791 13.6006839,6.52889829 14.2961219,7.22433624 C14.8395575,7.76777186 15.5744902,8.14327714 16.5249632,8.34673791 L16.5249632,8.34673791 L16.702522,8.39034363 C18.2196997,8.8116851 19.1645376,10.3480901 18.8305666,11.9082458 C18.7094738,12.4739343 18.4274064,12.9925467 18.0183422,13.4016109 L18.0183422,13.4016109 L16.417,15.002 L20.6602079,19.2452033 C21.0507322,19.6357276 21.0507322,20.2688926 20.6602079,20.6594169 C20.2975782,21.0220466 19.7257328,21.0479487 19.3332152,20.7371232 L19.2459943,20.6594169 L15.003,16.416 L13.4022868,18.0176663 C12.2775913,19.1423617 10.4820305,19.1873184 9.30366666,18.152597 L9.15967892,18.0176335 C8.75061747,17.608572 8.46855274,17.0899625 8.34746259,16.5242774 C8.14400047,15.573783 7.76849363,14.8388436 7.22505408,14.2954041 C6.52961592,13.5999659 5.70368525,13.0305937 4.74191494,12.5860058 L4.74191494,12.5860058 L4.58404835,12.5074186 C3.19287659,11.7638012 2.60721068,10.0543125 3.2775916,8.60408752 C3.42583953,8.28338501 3.6295724,7.9913908 3.87939989,7.74156331 L3.87939989,7.74156331 Z"/>
</svg>

<svg xmlns="http://www.w3.org/2000/svg" viewBox="0 0 24 24">
  <path d="M7.74 3.88a3 3 0 0 1 4.85.86 8.53 8.53 0 0 0 1.7 2.48c.55.55 1.28.92 2.23 1.13l.18.04a3 3 0 0 1 1.32 5.01l-1.6 1.6 4.24 4.25a1 1 0 0 1-1.33 1.49l-.08-.08L15 16.42l-1.6 1.6a3 3 0 0 1-4.1.13l-.14-.13a3 3 0 0 1-.81-1.5 4.34 4.34 0 0 0-1.12-2.22 8.53 8.53 0 0 0-2.49-1.71l-.16-.08a3 3 0 0 1-.7-4.77z"/>
</svg>
